static/assets/img/icons/theme/home/mailbox.svg

<svg height="24" viewBox="0 0 24 24" width="24" xmlns="http://www.w3.org/2000/svg"><g fill="none" fill-rule="evenodd"><path d="m0 0h24v24h-24z" opacity="0"/><g fill="#000"><path d="m8 6h12.5c.8284271 0 1.5.67157288 1.5 1.5s-.6715729 1.5-1.5 1.5h-12.5v10.5c0 .8284271-.67157288 1.5-1.5 1.5s-1.5-.6715729-1.5-1.5v-10.5h-1.5c-.82842712 0-1.5-.67157288-1.5-1.5s.67157288-1.5 1.5-1.5h1.5v-1.5c0-.82842712.67157288-1.5 1.5-1.5s1.5.67157288 1.5 1.5z"/><path d="m10 11h10.5c.8284271 0 1.5.6715729 1.5 1.5v2.5c0 2.209139-1.790861 4-4 4h-6.5c-.8284271 0-1.5-.6715729-1.5-1.5zm10 1c-.5522847 0-1 .4477153-1 1v3c0 .5522847.4477153 1 1 1s1-.4477153 1-1v-3c0-.5522847-.4477153-1-1-1z" opacity=".3"/></g></g></svg>

<svg width="24px" height="24px" viewBox="0 0 24 24" version="1.1" xmlns="http://www.w3.org/2000/svg" xmlns:xlink="http://www.w3.org/1999/xlink">
    <title>Icon For Mailbox</title>
    <g stroke="none" stroke-width="1" fill="none" fill-rule="evenodd">
        <rect opacity="0" x="0" y="0" width="24" height="24"></rect>
        <path d="M8,6 L20.5,6 C21.3284271,6 22,6.67157288 22,7.5 C22,8.32842712 21.3284271,9 20.5,9 L8,9 L8,19.5 C8,20.3284271 7.32842712,21 6.5,21 C5.67157288,21 5,20.3284271 5,19.5 L5,9 L3.5,9 C2.67157288,9 2,8.32842712 2,7.5 C2,6.67157288 2.67157288,6 3.5,6 L5,6 L5,4.5 C5,3.67157288 5.67157288,3 6.5,3 C7.32842712,3 8,3.67157288 8,4.5 L8,6 Z" fill="#000000"></path>
        <path d="M10,11 L20.5,11 C21.3284271,11 22,11.6715729 22,12.5 L22,15 C22,17.209139 20.209139,19 18,19 L11.5,19 C10.6715729,19 10,18.3284271 10,17.5 L10,11 Z M20,12 C19.4477153,12 19,12.4477153 19,13 L19,16 C19,16.5522847 19.4477153,17 20,17 C20.5522847,17 21,16.5522847 21,16 L21,13 C21,12.4477153 20.5522847,12 20,12 Z" fill="#000000" opacity="0.3"></path>
    </g>
</svg>
